!!!COM: Music21
!!!OTL: Pasacalles de Manuel Villanueva
!!!OMV: pezas_pasacorredoiras_pasacalles-de-manuel-villanueva_pasacalles-de-manuel-villanueva-partitura.musicxml
**kern
*I"Bagpipes
*I'Bag
*clefG^2
*k[b-]
*F:
*M2/4
=1
!LO:TX:a:t=Allegretto
*MM120
!LO:TX:a:t=[quarter]=120
4r
8.bb-L
16aaJk
=||
8.cccL
16aaJk
16cccLL
16bb-
16aa
16ggJJ
=
8aaL
8ffJ
8.bb-L
16ggJk
=
8.aaL
16ffJk
16eeLL
16ff
16gg
16aaJJ
=
16bb-LL
16aa
16gg
16ffJJ
8.bb-L
16aaJk
=
8.cccL
16aaJk
16cccLL
16bb-
16aa
16ggJJ
=
8aaL
8ffJ
8.bb-L
16ggJk
!!linebreak:original
=
8.aaL
16ffJk
16eeLL
16ff
16gg
16aaJJ
=
4ff
8.bb-L
16aaJk
=||
8.cccL
16aaJk
16cccLL
16bb-
16aa
16ggJJ
=
8aaL
8ffJ
8.bb-L
16ggJk
=
8.aaL
16ffJk
16eeLL
16ff
16gg
16aaJJ
=
16bb-LL
16aa
16gg
16ffJJ
8.bb-L
16aaJk
=
8.cccL
16aaJk
16cccLL
16bb-
16aa
16ggJJ
=
8aaL
8ffJ
8.bb-L
16ggJk
!!linebreak:original
=
8.aaL
16ffJk
16eeLL
16ff
16gg
16aaJJ
=
4ff
16ffLL
16aa
16gg
16eeJJ
=||
*k[]
*C:
16eeLL
16gg
16ff
16ddJJ
16eeLL
16ff
16ee
16bJJ
=
8ddL
8ccJ
16ccLL
16dd
16ee
16ffJJ
=
16aaLL
16gg
16ee
16ccJJ
16ggLL
16ff
16dd
16bJJ
!!linebreak:original
=
4cc
16ffLL
16aa
16gg
16eeJJ
=
16eeLL
16gg
16ff
16ddJJ
16eeLL
16ff
16ee
16bJJ
=
8ddL
8ccJ
16ccLL
16dd
16ee
16ffJJ
=
16aaLL
16gg
16ee
16ccJJ
16ggLL
16ff
16dd
16bJJ
=
4cc
16ffLL
16aa
16gg
16eeJJ
=||
16eeLL
16gg
16ff
16ddJJ
16eeLL
16ff
16ee
16bJJ
!!linebreak:original
=
8ddL
8ccJ
16ccLL
16dd
16ee
16ffJJ
=
16aaLL
16gg
16ee
16ccJJ
16ggLL
16ff
16dd
16bJJ
!!linebreak:original
=
4cc
16ffLL
16aa
16gg
16eeJJ
=
16eeLL
16gg
16ff
16ddJJ
16eeLL
16ff
16ee
16bJJ
=
8ddL
8ccJ
16ccLL
16dd
16ee
16ffJJ
=
16aaLL
16gg
16ee
16ccJJ
16ggLL
16ff
16dd
16bJJ
=
4cc
8.bb-XL
16aaJk
==
*-
